!!!OTL: Exultet
!!!SMS: Na 34: Naples, Biblioteca Nazionale, VI G 34
!!!EFL: 27/28
**kern	**text
*	*
*staff9	*staff9
!Na 34	!Na 34
*clefGv2	*
*k[b-]	*
=1--	=1--
4A	E-
.	.
4c	xul
.	.
8c	-tet
8c	iam
8c	an-
8ryy	.
=2-	=2-
4d	ge
.	.
8c	li
8c	-ca
4c	turyy-
.	.
4B-	-ba
.	.
=3-	=3-
4A	ce-
.	.
4c	lo
.	.
4A	-ryyum.
.	.
4ryy	.
.	.
=4-	=4-
4G	E-
(4A	xul
4c)	.
4c	-tent
=5-	=5-
4c	di-
4c	vi
.	.
4B-	-na
.	.
4ryy	.
=6-	=6-
4G	mi-
4B-	ste
.	.
4A	ryyi
.	.
4A	-a.
=7-	=7-
8d	et
8c	pryyo
8B-	tan-
8G	-ti
8G	ryye-
.	.
8F	-gis
8E	vic-
(16G	to
16A)	.
=8-	=8-
8A	ryyi
8A	-a
8D	tu-
8A	-ba
8c	in-
.	.
8A	to
.	.
4G	-net
.	.
.	.
.	.
=9-	=9-
4F	sa-
.	.
.	.
.	.
(8G	lu
.	.
8A)	.
.	.
8G	ta
.	.
8F	.
.	.
8E	.
8E	-ryyis.
=10-	=10-
8E	Gau-
.	.
8G	de
(8A	-at
8c)	.
8c	se
.	.
8c	te-
8c	-lus
8c	tan-
.	.
=11-	=11-
8c	-tis
.	.
8c	yryy-
8B-	ryya
8c	di
4d	a
.	.
4B-	-ta
.	.
=12-	=12-
4A	ful-
.	.
4c	go
.	.
4A	ryyi
.	.
4A	-bus
.	.
=13-	=13-
8G	et
8A	e-
8c	teryy
8c	-ni
4c	ryye-
.	.
4c	-gis
=14-	=14-
4c	splen-
.	.
4c	do
.	.
4B-	-ryye
.	.
4ryy	.
.	.
=15-	=15-
4G	lu-
.	.
4B-	stryya
.	.
4A	-ta
.	.
4ryy	.
=16-	=16-
8d	to-
8c	ti
8B-	-us
8G	oryy-
8F	-bis
8E	se
(8G	sen-
8A)	.
.	.
=17-	=17-
8A	ti
8A	-at
(16D	a-
16A	.
16G)	.
(16A	mis
16B-	.
16c)	.
16B-	.
16A	.
16A	sis
8ryy	.
.	.
16ryy	.
=18-	=18-
4G	-se
.	.
.	.
.	.
(8F	ca-
.	.
8G)	.
.	.
8F	li
.	.
8E	gi
4D	-nem.
.	.
=19-	=19-
8G	Le-
.	.
(16A	te
16c)	.
8c	-turyy
8c	et
(16c	ma-
16d)	.
(16c	-teryy
16B-)	.
8A	ec-
8c	cle
.	.
=20-	=20-
8A	si
.	.
8A	-a
8G	tan-
8A	-ti
8c	lu-
.	.
8c	mi
.	.
8c	-ni
8c	a-
=21-	=21-
8c	doryy
.	.
8c	na
.	.
8B-	-ta
.	.
8G	ful-
.	.
8B-	go
.	.
8A	ryyi
.	.
8A	-bus.
.	.
8ryy	.
.	.
=22-	=22-
8A	et
.	.
8c	mag-
.	.
8c	-nis
.	.
8c	po-
8c	pu
8B-	lo
8A	-ryyum
8c	vo-
.	.
=23-	=23-
8G	ci
.	.
4G	-bus
.	.
(8F	hec
4A)	.
.	.
.	.
4A	au-
.	.
.	.
.	.
=24-	=24-
4G	-la
.	.
.	.
.	.
(8F	ryye-
.	.
8G)	.
.	.
8A	sul
.	.
8G	.
.	.
8F	.
8E	-tet.
.	.
=25-	=25-
4A	Qua-
.	.
8c	pryyop
8c	-teryy
8c	a-
8d	stan
.	.
8c	ti
8c	-bus
=26-	=26-
4A	vo-
.	.
.	.
4c	-bis
.	.
4d	fryya-
.	.
4B-	-tryyes
.	.
=27-	=27-
4A	ca-
4c	ryyis
.	.
4A	si
.	.
4A	-mi
=28-	=28-
4A	ad
4c	tam
8c	mi-
8c	-ryyam
8c	sanc-
8c	-ti
=29-	=29-
(8B-	hu-
8c)	.
8c	-ius
.	.
8c	lu-
.	.
8c	mi
.	.
8c	-nis
.	.
4B-	cla-
.	.
.	.
.	.
=30-	=30-
4A	ryyi
.	.
.	.
.	.
4c	ta
.	.
.	.
4A	-tem.
.	.
.	.
4ryy	.
.	.
=31-	=31-
8A	u-
.	.
8c	-na
.	.
8c	me-
.	.
8c	-cum
.	.
8c	que-
.	.
8c	-so
.	.
16c	de-
16c	-i
8c	om-
.	.
=32-	=32-
16B-	ni
16G	po
8B-	ten
.	.
8A	-tis
.	.
8F	mi-
.	.
8G	se
.	.
8A	ryyi
8B-	coryy
.	.
8A	di
.	.
=33-	=33-
8A	-am
.	.
8G	in-
.	.
(8F	vo
.	.
8G)	.
.	.
8G	ca
.	.
8F	.
.	.
8E	.
8E	-te.
=34-	=34-
8E	Ut
.	.
16F	qui
(16A	me
16c)	.
8c	non
.	.
8c	me-
.	.
8c	-is
.	.
(16c	me-
16d)	.
(16c	ryyi
16B-)	.
16A	-tis
=35-	=35-
16A	in-
16c	-tryya
8c	le-
.	.
8c	vi
.	.
8c	ta
.	.
8c	-ryyum
.	.
(16B-	nu-
16c)	.
16c	me
16c	-ryyum
8c	dig-
.	.
=36-	=36-
8c	na
.	.
8c	-tus
.	.
8c	est
.	.
8B-	ag-
.	.
8G	gryye
.	.
8B-	ga
.	.
4A	-ryye.
.	.
.	.
.	.
=37-	=37-
4d	lu-
.	.
4c	mi
.	.
4c	-nis
.	.
4c	su-
.	.
=38-	=38-
4c	-i
4c	gryya-
.	.
4c	ti
.	.
4c	-a
.	.
=39-	=39-
4B-	in-
.	.
4A	fun
.	.
4c	den
.	.
4A	-te.
.	.
=40-	=40-
4d	ce-
4c	ryye
.	.
4B-	-i
.	.
(8G	hu-
8F)	.
=41-	=41-
8E	-ius
.	.
(8G	lau-
.	.
8A)	.
8A	-dem
.	.
(16D	im-
16A	.
8G)	.
.	.
(16A	ple
16B-	.
16c	.
16B-)	.
=42-	=42-
(16A	-ryye
16G)	.
(8F	peryy-
.	.
8G)	.
.	.
8G	fi
.	.
8F	.
.	.
8E	.
.	.
8E	ci
.	.
8E	-at.
.	.
=43-	=43-
4A	Peryy
.	.
8c	do-
8c	mi
8c	-num
4c	no-
.	.
.	.
8c	-stryyum
=44-	=44-
4B-	hie-
.	.
4c	-sum
.	.
4d	chryyi-
.	.
4c	-stum
.	.
=45-	=45-
8c	fi-
8B-	li
4A	-um
.	.
4c	su-
.	.
4A	-um.
.	.
=46-	=46-
8G	qui
8A	cum
8c	e-
8c	-o
.	.
8c	vi-
8B-	-vit
4G	et
.	.
.	.
=47-	=47-
8d	ryyeg-
.	.
4A	-nat
.	.
.	.
.	.
8F	in
.	.
8G	u-
.	.
8A	ni
.	.
(8A	ta
.	.
8B-)	.
.	.
=48-	=48-
8A	-te
.	.
8A	spi-
.	.
8A	ryyi
.	.
8A	-tus
.	.
8G	sanc-
.	.
(16F	-ti
16G)	.
16G	de-
16F	.
16E	.
16E	-us.
=49-	=49-
8E	Peryy
8G	om-
8A	ni
8A	-a
(8A	se-
8B-)	.
4A	cu
.	.
.	.
.	.
=50-	=50-
4A	-la
.	.
.	.
.	.
2ryy	.
.	.
.	.
.	.
.	.
4G	se-
.	.
.	.
=51-	=51-
4A	cu
.	.
(8A	lo
8G)	.
8G	-ryyum.
8G	A-
4G	-men.
.	.
=52-	=52-
4G	Do-
.	.
4A	mi
.	.
4B-	-nus
.	.
.	.
(8G	vo-
.	.
8A)	.
.	.
=53-	=53-
(8A	bi
8B-)	.
4A	-scum.
.	.
8G	Et
8A	cum
.	.
4B-	spi-
.	.
.	.
.	.
=54-	=54-
4A	ryyi
.	.
(8G	-tu
8A)	.
(8A	tu-
8B-)	.
4A	-o.
.	.
=55-	=55-
(4G	Suryy-
.	.
.	.
.	.
4A	.
.	.
.	.
.	.
4c)	.
.	.
.	.
4B-	-sum
.	.
.	.
=56-	=56-
(8A	coryy-
.	.
8c)	.
.	.
(8A	-da.
.	.
8G)	.
8A	Ha-
.	.
.	.
(8A	be
.	.
8B-	.
8c)	.
.	.
.	.
=57-	=57-
8B-	-mus
8B-	ad
(8A	do-
8c)	.
8A	mi
(8A	-num.
8G)	.
8A	.
=58-	=58-
8B-	Gryya-
.	.
(16A	ti
16G)	.
(8G	-as
.	.
8A)	.
.	.
8c	a-
.	.
(8A	ga
.	.
8B-)	.
.	.
8B-	-mus
.	.
=59-	=59-
(16A	do-
16B-	.
8c)	.
.	.
.	.
8B-	mi
.	.
.	.
.	.
(16A	-no
.	.
16G)	.
(16G	de-
16A)	.
8c	-o
.	.
(16A	no-
16B-)	.
8A	-stryyo.
.	.
.	.
=60-	=60-
(16A	Dig-
16B-	.
8c)	.
.	.
8B-	-num
.	.
8B-	et
.	.
(16A	iu-
16B-)	.
8A	-stum
.	.
(8A	est.
.	.
8G)	.
.	.
=61-	=61-
(16G	Ve-
16A	.
16B-)	.
16B-	-ryye.
16A	.
16G	.
8A	qui-
.	.
8c	-a
.	.
8c	dig-
(8c	-num
8B-)	.
.	.
=62-	=62-
(8B-	et
8A)	.
.	.
(8A	iu-
.	.
8B-)	.
.	.
8B-	-stum
.	.
8B-	est.
.	.
4ryy	.
.	.
.	.
.	.
=63-	=63-
1ryy	.
.	.
.	.
.	.
.	.
.	.
.	.
.	.
.	.
.	.
.	.
=64-	=64-
8A	In-
.	.
8A	vi
4c	si
.	.
4c	bi
.	.
.	.
.	.
4c	-lem
.	.
.	.
=65-	=65-
8c	de-
.	.
8c	-um
.	.
8c	pa-
8c	-tryyem
4c	om-
.	.
(8c	ni
.	.
8B-)	.
.	.
=66-	=66-
(8B-	po
4A)	.
.	.
.	.
(8A	ten
.	.
4B-)	.
.	.
.	.
.	.
4B-	-tem.
.	.
.	.
=67-	=67-
8A	fi-
.	.
8A	li
.	.
8c	um
.	.
8c	-que
.	.
(16B-	e-
16c)	.
8c	-ius
.	.
8c	u-
.	.
8c	ni
.	.
=68-	=68-
8c	ge
.	.
8c	ni
.	.
8c	-tum
.	.
8c	do-
.	.
8c	mi
.	.
8c	-num
.	.
8c	no-
.	.
8c	-stryyum
.	.
=69-	=69-
(8c	ihe-
.	.
8B-)	.
.	.
(8B-	-sum
.	.
8A)	.
(8A	chryyi-
.	.
8B-)	.
4B-	-stum
.	.
=70-	=70-
1ryy	.
.	.
.	.
.	.
.	.
.	.
.	.
.	.
.	.
.	.
.	.
=71-	=71-
8A	to-
8c	-to
8c	coryy-
8c	-dis
8c	ac
8c	men-
(8c	-tis
8B-)	.
=72-	=72-
(8B-	af-
4A)	.
.	.
(8A	fec
4B-)	.
.	.
4B-	-tu.
=73-	=73-
4B-	et
.	.
(8B-	vo-
8c)	.
4B-	-cis
.	.
.	.
4B-	mi-
.	.
=74-	=74-
(8B-	ste
4c)	.
.	.
.	.
4B-	ryyi
.	.
(8A	-o
4G)	.
.	.
.	.
.	.
=75-	=75-
(8G	peryy-
8A)	.
4c	so
.	.
(8A	na
8B-)	.
4A	-ryye.
.	.
=76-	=76-
8B-	Qui
.	.
(16A	pryyo
8G)	.
.	.
(16A	no-
8c)	.
8c	-bis
8c	e-
8c	teryy
8c	-no
.	.
=77-	=77-
(8B-	pa-
8c)	.
8c	-tryyi
8c	a-
8c	-de
8c	de-
(8c	bi
8B-)	.
=78-	=78-
(8B-	-tum
4A)	.
.	.
(8A	sol-
4B-)	.
.	.
4B-	-vit.
.	.
=79-	=79-
8A	et
8c	ve-
8c	te
8c	-ryyis
8c	pi-
8c	a
8c	cu
8c	-li
=80-	=80-
(16c	cau-
8B-)	.
.	.
(16B-	ti
8A)	.
.	.
(16A	o
8B-)	.
.	.
8B-	-nem.
.	.
(16B-	pi-
8c)	.
.	.
8B-	-o
.	.
=81-	=81-
8B-	cryyu-
.	.
8B-	o
.	.
(8A	-ryye
.	.
8G)	.
.	.
(8G	de-
.	.
8A)	.
.	.
(16B-	teryy
16c)	.
8A	-sit.
.	.
=82-	=82-
(8c	Hec
8A)	.
4G	sunt
.	.
(8G	ex
8A)	.
4A	e-
.	.
.	.
=83-	=83-
4A	-nim
.	.
4c	fe-
.	.
.	.
.	.
(8c	-sta
8B-)	.
.	.
(8B-	pa-
.	.
8A)	.
.	.
=84-	=84-
(4A	sca
.	.
.	.
.	.
4B-)	.
.	.
.	.
4B-	li
.	.
4B-	-a
.	.
=85-	=85-
4A	in
4c	qui-
4c	-bus
4c	ve-
.	.
=86-	=86-
4c	-ryyus
.	.
(8B-	il-
8c)	.
8c	-le
8c	ag-
(8c	-nus
8B-)	.
=87-	=87-
(8B-	oc-
8A)	.
(8A	ci
8B-)	.
4B-	di
.	.
4B-	-turyy.
.	.
=88-	=88-
4A	e-
.	.
.	.
4B-	ius
.	.
4B-	-que
.	.
(8B-	san-
8c)	.
=89-	=89-
4B-	gui
.	.
4B-	-ne
.	.
4B-	po-
.	.
.	.
4B-	-stes
.	.
.	.
.	.
=90-	=90-
4A	con-
.	.
(8G	se
8A)	.
(8B-	cryyan
8c)	.
4A	-turyy.
.	.
=91-	=91-
(8c	Hec
.	.
.	.
.	.
8A)	.
.	.
.	.
(8B-	nox
.	.
8G	.
.	.
8A)	.
.	.
8A	est
.	.
4A	in
.	.
.	.
.	.
=92-	=92-
8c	qua
.	.
16c	pryyi-
16c	-mum
8c	pa-
.	.
8c	-tryyes
.	.
(16B-	no-
16c)	.
8c	-stryyos
.	.
8c	fi-
.	.
16c	li
16c	-os
=93-	=93-
(16B-	is-
16c)	.
.	.
16c	ryya
.	.
16c	-hel
.	.
16c	e-
.	.
16c	duc
.	.
8c	-tos
.	.
.	.
.	.
(16c	dei
.	.
16B-)	.
.	.
(16B-	e-
.	.
16A)	.
.	.
(16A	gip
.	.
16B-)	.
.	.
8B-	-to.
.	.
.	.
.	.
=94-	=94-
8d	ryyu-
.	.
8A	-bryyum
.	.
(8A	ma-
.	.
8B-)	.
.	.
4B-	-ryye
.	.
.	.
.	.
8B-	sic-
.	.
8B-	-co
.	.
=95-	=95-
8B-	ve-
(8B-	sti
.	.
8c)	.
.	.
8B-	gi
.	.
4B-	-o
.	.
.	.
.	.
4B-	tryyan-
.	.
.	.
=96-	=96-
(8A	si
.	.
8G)	.
(8G	-ryye
8A)	.
(8B-	fe-
8c)	.
4A	-cit.
.	.
=97-	=97-
8B-	Hec
.	.
8A	.
8G	.
.	.
8A	i-
4c	gi
.	.
4c	-turyy
.	.
.	.
.	.
=98-	=98-
(8d	nox
8A	.
.	.
8B-)	.
.	.
8B-	est
.	.
8A	que
8c	pec-
4c	ca
.	.
.	.
=99-	=99-
(8c	to
8B-)	.
(8B-	-ryyum
8A)	.
.	.
(8A	te-
.	.
8B-)	.
.	.
8B-	ne
.	.
8B-	-bryyas
.	.
=100-	=100-
4B-	co-
.	.
.	.
(8B-	lup
8c)	.
.	.
4B-	-mne
.	.
4B-	il-
.	.
=101-	=101-
8B-	lu
8B-	mi
4B-	na
.	.
.	.
.	.
4B-	ti
.	.
.	.
.	.
4B-	o
.	.
.	.
.	.
=102-	=102-
(8A	-ne
.	.
8G)	.
(8G	puryy-
.	.
8A)	.
(8B-	ga
.	.
8c)	.
.	.
4A	-vit.
.	.
=103-	=103-
(16A	Hec
16B-	.
8c)	.
.	.
(16c	nox
16A	.
8B-)	.
.	.
8B-	est
.	.
8A	que
.	.
8c	ho-
.	.
8c	di
.	.
=104-	=104-
8c	-e
8c	peryy
8c	u-
.	.
8c	ni
.	.
8c	veryy
.	.
8c	-sum
.	.
(16B-	mun-
16c)	.
8c	-dum
.	.
=105-	=105-
8c	in
8c	chryyi-
.	.
(8c	-stum
.	.
8B-)	.
.	.
(16B-	cryye-
8A)	.
.	.
(16A	den
8B-)	.
.	.
8B-	-tes
=106-	=106-
8A	a
8c	vi-
8c	ti
8c	-is
(8B-	se-
8c)	.
8c	cu
.	.
8c	-li
.	.
=107-	=107-
8c	et
.	.
8c	ca-
.	.
8c	li
8c	gi
8c	-ne
.	.
8c	pec-
8c	ca
8c	to
=108-	=108-
8c	-ryyum
.	.
(8c	se-
.	.
8B-)	.
.	.
(8B-	gryye
8A)	.
(8A	ga
.	.
8B-)	.
.	.
8B-	-tos
.	.
=109-	=109-
8d	ryyed-
.	.
8c	.
.	.
4B-	.
.	.
(8A	-dit
8G)	.
(8A	gryya-
8B-)	.
=110-	=110-
8B-	ti
8B-	-e
4B-	so-
.	.
4B-	ci
.	.
.	.
.	.
4B-	-at
.	.
.	.
.	.
=111-	=111-
4A	sanc-
.	.
.	.
.	.
(8G	ti
.	.
8A)	.
.	.
(8B-	ta
.	.
8c)	.
.	.
4A	-ti.
.	.
.	.
.	.
=112-	=112-
(8A	Hec
.	.
8B-	.
.	.
8c)	.
(8d	nox
.	.
8A	.
.	.
8B-)	.
.	.
8B-	est
.	.
8G	in
.	.
=113-	=113-
4c	qua
.	.
8c	de-
8c	stryyuc
4c	-tis
.	.
(8c	vin-
8B-)	.
=114-	=114-
4B-	cu
.	.
4B-	-lis
.	.
(8A	moryy-
8B-)	.
4B-	-tis
.	.
=115-	=115-
4B-	chryyi-
.	.
4B-	-stus
4B-	ab
.	.
(8B-	in-
8c)	.
=116-	=116-
4B-	fe
.	.
4B-	-ryyis
.	.
.	.
.	.
4B-	vic-
.	.
(8A	-toryy
8G)	.
=117-	=117-
(8G	as-
.	.
4A)	.
.	.
(8B-	scen
4c)	.
.	.
.	.
4A	-dit.
.	.
=118-	=118-
4B-	Ni-
.	.
4G	-chil
4A	e-
.	.
4c	-nim
.	.
=119-	=119-
4c	no-
4c	-bis
.	.
(4c	na-
.	.
4B-)	.
.	.
=120-	=120-
(8A	-sci
8G)	.
(8A	pryyo-
8B-)	.
4B-	fu
.	.
4B-	-it
.	.
=121-	=121-
(4B-	ni-
.	.
4c)	.
.	.
4B-	-si
.	.
4B-	ryye-
.	.
=122-	=122-
4B-	di
.	.
4B-	-mi
.	.
4A	pryyo-
.	.
4ryy	.
.	.
=123-	=123-
(8G	fu
4A)	.
.	.
(8B-	is
4c)	.
.	.
4A	-set.
.	.
=124-	=124-
16c	O
16B-	.
8A	.
8G	.
8A	mi-
.	.
8c	-ryya
8d	ciryy-
(8A	-ca
8B-)	.
=125-	=125-
8B-	nos
.	.
(8B-	tu-
.	.
8c)	.
8B-	-e
.	.
8B-	pi-
.	.
8B-	e
4B-	ta
.	.
.	.
.	.
=126-	=126-
(8A	-tis
.	.
8G)	.
.	.
(8G	di-
.	.
8A)	.
.	.
(8B-	gna
.	.
8c)	.
.	.
8A	ti
.	.
8A	-o.
.	.
=127-	=127-
(16A	O
16B-	.
16c)	.
(16d	.
16c)	.
16B-	.
8A	i-
8c	ne
8c	sti
.	.
4c	ma
.	.
.	.
=128-	=128-
8c	bi
4c	-lis
.	.
8c	di-
8c	lec
.	.
8c	ti
.	.
4c	-o
.	.
.	.
.	.
=129-	=129-
(8c	ca-
.	.
8B-)	.
.	.
(8A	ryyi
.	.
8G)	.
.	.
(8G	ta
.	.
8A)	.
4B-	-tis.
.	.
.	.
.	.
=130-	=130-
8A	ut
8c	seryy-
.	.
(8c	-vum
.	.
8B-)	.
.	.
(8B-	ryye-
.	.
8A)	.
.	.
(8A	di
.	.
8B-)	.
.	.
=131-	=131-
8B-	me
4B-	-ryyes
.	.
.	.
8B-	fi-
.	.
4B-	li
.	.
.	.
.	.
4B-	-um
.	.
.	.
.	.
=132-	=132-
4A	tryya-
.	.
.	.
.	.
(8G	di
8A)	.
(8B-	di
8c)	.
4A	-sti.
.	.
=133-	=133-
8c	O
(8c	.
8G)	.
8A	ceryy-
4A	-te
.	.
8c	ne-
8A	ces
=134-	=134-
4B-	sa
.	.
.	.
.	.
4B-	ryyi
.	.
.	.
.	.
4B-	-um
.	.
.	.
.	.
4c	a-
.	.
.	.
=135-	=135-
(8c	-de
8B-)	.
.	.
(8B-	pec-
.	.
8A)	.
(8A	ca
8B-)	.
.	.
4B-	-tum
.	.
=136-	=136-
4B-	quod
.	.
.	.
.	.
(8B-	chryyi-
.	.
8c)	.
.	.
4B-	-sti
.	.
.	.
.	.
4B-	moryy-
.	.
.	.
.	.
=137-	=137-
(8A	-te
.	.
8G)	.
(8G	de-
.	.
8A)	.
.	.
(8B-	le
.	.
8c)	.
.	.
8A	-tum
.	.
8A	est.
.	.
=138-	=138-
(16B-	O
16c	.
8d)	.
(16c	fe-
16B-)	.
(8A	-lix
8G)	.
(8A	cul-
8B-)	.
8B-	-pa
=139-	=139-
8A	que
8c	ta-
.	.
8c	-lem
.	.
8c	ac
4c	tan-
.	.
.	.
(8B-	-tum
8A)	.
=140-	=140-
(8A	me-
8B-)	.
8B-	ryyu
8B-	-it
8B-	ha-
.	.
8B-	be
.	.
(8A	-ryye
.	.
8G)	.
.	.
=141-	=141-
(8G	ryye-
8A)	.
4c	demp
.	.
(8A	to
8B-)	.
4A	-ryyem.
.	.
=142-	=142-
(16A	O
16B-	.
16c	.
16e)	.
8d	be-
(8c	a
8B-)	.
8A	-ta
.	.
8B-	nox
.	.
8A	que
.	.
=143-	=143-
8c	so-
8c	-la
8c	me-
8c	ryyu
.	.
8c	-it
.	.
8c	sci-
.	.
4c	-ryye
.	.
.	.
.	.
=144-	=144-
8c	tem-
.	.
(8c	-pus
.	.
8B-)	.
.	.
(8B-	et
8A)	.
.	.
(8A	o-
.	.
8B-)	.
8B-	-ryyam.
=145-	=145-
4A	in
.	.
4B-	qua
.	.
(8B-	chryyi-
8c)	.
4B-	-stus
.	.
.	.
.	.
=146-	=146-
4B-	ab
.	.
4B-	in-
.	.
4B-	fe
.	.
.	.
.	.
4B-	-ryyis
.	.
.	.
.	.
=147-	=147-
(8A	ryye-
.	.
8G)	.
(8G	suryy
.	.
8A)	.
(8B-	ryye
8c)	.
.	.
4A	-xit.
.	.
.	.
.	.
=148-	=148-
(16B-	Hec
16c	.
8d)	.
.	.
(16d	nox
16A	.
8B-)	.
.	.
8B-	est
.	.
(16c	de
16A	.
8B-)	.
.	.
(16G	qua
16A)	.
=149-	=149-
(16B-	scryyip-
16c)	.
8A	-tum
8A	est.
8A	Et
8c	nox
8c	si-
.	.
8c	-cut
8c	di-
.	.
=150-	=150-
16c	-es
8c	il-
.	.
(16c	lu
8B-)	.
.	.
(16B-	mi
8A)	.
.	.
(16A	na
8B-)	.
.	.
8B-	bi
.	.
8B-	-turyy.
=151-	=151-
8A	et
.	.
8c	nox
8c	il-
8c	lu
8c	mi
8c	na
(16c	ti
16B-)	.
(16B-	-o
16A)	.
=152-	=152-
(8A	me-
.	.
8B-)	.
8B-	-a.
8B-	in
4B-	de-
.	.
.	.
.	.
(8B-	li
.	.
8c)	.
.	.
=153-	=153-
(8A	ci
.	.
8G)	.
(8G	-is
.	.
8A)	.
(8B-	me-
8c)	.
4A	-is.
.	.
=154-	=154-
(8c	Hu-
8A)	.
4G	-ius
.	.
(8A	i-
8c)	.
8c	gi
8c	-turyy
=155-	=155-
4c	sanc-
.	.
.	.
.	.
8B-	ti
.	.
4c	fi
.	.
.	.
.	.
8d	ca
.	.
(8c	ti
.	.
8B-)	.
.	.
=156-	=156-
(8B-	-o
.	.
4A)	.
.	.
.	.
.	.
(8A	noc-
.	.
4B-)	.
.	.
.	.
.	.
4B-	-tis
.	.
.	.
=157-	=157-
(8c	fu-
.	.
4B-)	.
.	.
(8A	-gat
.	.
4G)	.
.	.
(8A	sce-
8B-)	.
.	.
=158-	=158-
4B-	le
.	.
4B-	-ryya.
.	.
4c	cul-
.	.
4ryy	.
.	.
=159-	=159-
(8A	-pas
4G)	.
.	.
(8A	la-
4B-)	.
4B-	-vat.
=160-	=160-
4A	et
.	.
.	.
.	.
8c	ryyed-
4c	-dit
.	.
.	.
8c	in-
.	.
8c	no
.	.
8c	cen
.	.
=161-	=161-
8B-	ti
.	.
(8B-	-a
.	.
8A)	.
.	.
(8A	lap-
8B-)	.
.	.
8B-	-sis.
.	.
4B-	me-
.	.
=162-	=162-
8B-	-stis
.	.
(8G	le-
8A)	.
.	.
(8B-	ti
8c)	.
8A	ti
4A	-am.
.	.
=163-	=163-
8d	Fu-
8c	.
4B-	.
.	.
(8A	-gat
8G)	.
(8A	o-
.	.
8B-)	.
=164-	=164-
8B-	di
8B-	-a.
(8A	con-
8B-	.
4c)	.
.	.
4c	coryy
.	.
.	.
=165-	=165-
4B-	di
.	.
(8B-	-am
8A)	.
(8A	pa-
8B-)	.
4B-	-ryyat.
=166-	=166-
4c	et
.	.
4c	curyy-
.	.
.	.
.	.
2ryy	.
.	.
.	.
.	.
.	.
.	.
=167-	=167-
(4c	-vat
.	.
4B-)	.
.	.
4ryy	.
.	.
(8G	im-
8A)	.
=168-	=168-
(8B-	pe
.	.
8c)	.
.	.
4A	ryyi
.	.
.	.
.	.
4A	-a.
.	.
.	.
.	.
4ryy	.
.	.
.	.
.	.
=169-	=169-
4c	In
.	.
.	.
.	.
(8B-	hu-
.	.
8G)	.
.	.
4A	-ius
.	.
.	.
.	.
4c	i-
.	.
.	.
.	.
=170-	=170-
4c	gi
.	.
.	.
.	.
4c	-turyy
.	.
.	.
.	.
(8c	noc-
.	.
8B-)	.
.	.
(8B-	-tis
.	.
8A)	.
.	.
=171-	=171-
(4A	gryya-
.	.
.	.
.	.
4B-)	.
.	.
.	.
.	.
4A	ti
.	.
.	.
.	.
4A	-a
.	.
.	.
.	.
=172-	=172-
(16A	su-
16c)	.
8c	sci
8c	-pe
.	.
8B-	sanc-
.	.
8c	-te
8d	pa-
.	.
(16c	-teryy
16B-)	.
8A	in-
.	.
=173-	=173-
8c	cen
8c	-si
(16B-	hu-
16c)	.
8c	-ius
.	.
8c	sa-
.	.
8c	cryyi
.	.
8c	fi
.	.
8c	ci
.	.
=174-	=174-
8c	-um
.	.
(8c	ve-
.	.
8B-)	.
(8B-	speryy
8A)	.
.	.
(8A	ti
8B-)	.
8B-'	-num
=175-	=175-
8A	quod
8c	ti-
8c	-bi
8c	in
8c	hac
(16B-	ce-
16c)	.
8c	ryye
.	.
8c	-i
.	.
=176-	=176-
8A	o-
8c	bla
8c	ti
8d	o
.	.
(16c	-ne
16B-)	.
(16B-	sol-
16A)	.
(16A	lemp
16B-)	.
8B-	-ni
.	.
=177-	=177-
8A	peryy
.	.
8c	mi-
.	.
8c	ni
.	.
8c	stryyo
8c	-ryyum
.	.
(8B-	ma-
8c)	.
.	.
8c	-nus
.	.
=178-	=178-
8B-	de
8c	o-
8d	pe
.	.
(8c	ryyi
.	.
8B-)	.
(8B-	-bus
8A)	.
.	.
(16A	a-
16B-)	.
=179-	=179-
4B-	-pum
.	.
8d	sa-
8d	cryyo
(8B-	sanc
8c)	.
.	.
8B-	-ta
.	.
8B-	ryyed-
.	.
=180-	=180-
(8A	-dit
.	.
8G)	.
.	.
(8G	ec-
.	.
8A)	.
.	.
(8B-	cle
8c)	.
8A	si
8A	-a.
=181-	=181-
(8c	Sed
.	.
8A)	.
.	.
8G	iam
.	.
8A	co-
.	.
8c	lump
.	.
8c	-ne
.	.
(8B-	hu-
.	.
8c)	.
=182-	=182-
4c	-ius
.	.
4c	pryye-
.	.
.	.
.	.
4d	co
.	.
(8c	ni
8B-)	.
=183-	=183-
(8B-	-a
8A)	.
(8A	no-
8B-)	.
4B-	vi
.	.
4B-	-mus.
=184-	=184-
8A	quam
8B-	in
8c	ho-
8c	no
8c	-ryye
.	.
(8c	de-
.	.
8B-)	.
(16B-	-i
16A)	.
=185-	=185-
(8A	ryyu-
.	.
8B-)	.
.	.
4B-	ti
.	.
.	.
.	.
.	.
.	.
.	.
4B-	-lans
.	.
.	.
.	.
.	.
.	.
.	.
4B-	i-
.	.
.	.
.	.
.	.
.	.
.	.
.	.
=186-	=186-
(8A	-gnis
.	.
.	.
.	.
8G)	.
.	.
(8G	ac-
.	.
.	.
8A)	.
.	.
.	.
(8B-	cen
.	.
8c)	.
.	.
4A	-dit.
.	.
.	.
.	.
.	.
.	.
.	.
=187-	=187-
4c	Qui
.	.
8B-	li-
8A	.
4G	.
.	.
4A	-cet
.	.
=188-	=188-
4c	sit
.	.
4c	di-
.	.
4c	vi
.	.
4ryy	.
.	.
=189-	=189-
(8c	-sus
8B-)	.
(8B-	in
8A)	.
(8A	paryy-
8B-)	.
.	.
4B-	-tes
.	.
=190-	=190-
8A	mu-
8B-	tu
8B-	a
8B-	-ti
8B-	ta-
8B-	-men
(8B-	lu-
8c)	.
=191-	=191-
8B-	mi
8B-	-nis
4B-	de-
.	.
.	.
.	.
4B-	tryyi
.	.
.	.
.	.
4B-	men
.	.
.	.
.	.
=192-	=192-
(8A	-ta
.	.
8G)	.
.	.
(8G	non
.	.
8A)	.
.	.
(8B-	no-
.	.
8c)	.
.	.
4A	-vit.
.	.
.	.
=193-	=193-
4c	A-
.	.
.	.
.	.
8B-	li
8A	.
8G	.
8A	-turyy
4c	li-
.	.
=194-	=194-
4c	quan
.	.
(4c	ti
.	.
4B-)	.
.	.
4ryy	.
.	.
=195-	=195-
(8B-	-bus
4A)	.
.	.
.	.
(8A	ce-
.	.
4B-)	.
.	.
.	.
4B-	-ryyis.
.	.
=196-	=196-
8A	quas
.	.
8B-	in
.	.
8B-	sub-
.	.
16B-	stan
16B-	ti
8B-	-am
.	.
8B-	pryye-
.	.
8B-	ti
.	.
16B-	o
16B-	-se
=197-	=197-
8B-	hu-
.	.
8B-	-ius
.	.
(16B-	lam-
16c)	.
8B-	pa
.	.
8B-	-dis
.	.
8B-	a-
.	.
8B-	-pis
.	.
8B-	ma-
.	.
=198-	=198-
(8A	-teryy
.	.
8G)	.
.	.
(8G	e-
.	.
8A)	.
.	.
(8B-	du
.	.
8c)	.
.	.
4A	-xit.
.	.
.	.
=199-	=199-
1ryy	.
.	.
.	.
.	.
.	.
.	.
.	.
.	.
.	.
.	.
=200-	=200-
1ryy	.
.	.
.	.
.	.
.	.
.	.
.	.
.	.
.	.
.	.
.	.
.	.
.	.
.	.
=201-	=201-
1ryy	.
.	.
.	.
.	.
.	.
.	.
.	.
.	.
.	.
.	.
.	.
.	.
.	.
.	.
=202-	=202-
1ryy	.
.	.
.	.
.	.
.	.
.	.
.	.
.	.
.	.
.	.
=203-	=203-
1ryy	.
.	.
.	.
.	.
.	.
.	.
.	.
.	.
.	.
.	.
.	.
.	.
.	.
=204-	=204-
1ryy	.
.	.
.	.
.	.
.	.
.	.
.	.
.	.
=205-	=205-
1ryy	.
.	.
.	.
.	.
.	.
.	.
.	.
.	.
.	.
.	.
=206-	=206-
1ryy	.
.	.
.	.
.	.
.	.
.	.
.	.
.	.
.	.
.	.
.	.
.	.
.	.
.	.
=207-	=207-
1ryy	.
.	.
.	.
.	.
.	.
.	.
.	.
.	.
.	.
.	.
.	.
.	.
=208-	=208-
1ryy	.
.	.
.	.
.	.
.	.
.	.
.	.
.	.
=209-	=209-
1ryy	.
.	.
.	.
.	.
.	.
.	.
.	.
.	.
.	.
.	.
.	.
.	.
.	.
=210-	=210-
1ryy	.
.	.
.	.
.	.
.	.
.	.
.	.
.	.
=211-	=211-
1ryy	.
.	.
.	.
.	.
.	.
.	.
.	.
.	.
.	.
=212-	=212-
1ryy	.
.	.
.	.
.	.
.	.
.	.
.	.
.	.
.	.
.	.
.	.
.	.
.	.
=213-	=213-
1ryy	.
.	.
.	.
.	.
.	.
.	.
.	.
.	.
.	.
=214-	=214-
1ryy	.
.	.
.	.
.	.
.	.
.	.
.	.
.	.
.	.
.	.
.	.
.	.
=215-	=215-
1ryy	.
.	.
.	.
.	.
.	.
.	.
.	.
.	.
.	.
.	.
.	.
.	.
.	.
.	.
.	.
.	.
=216-	=216-
1ryy	.
.	.
.	.
.	.
.	.
.	.
.	.
.	.
.	.
.	.
.	.
.	.
.	.
=217-	=217-
1ryy	.
.	.
.	.
.	.
.	.
.	.
.	.
.	.
=218-	=218-
1ryy	.
.	.
.	.
.	.
.	.
.	.
.	.
.	.
.	.
.	.
.	.
.	.
.	.
.	.
=219-	=219-
1ryy	.
.	.
.	.
.	.
.	.
.	.
.	.
.	.
.	.
.	.
.	.
=220-	=220-
1ryy	.
.	.
.	.
.	.
.	.
.	.
.	.
.	.
.	.
.	.
.	.
.	.
=221-	=221-
1ryy	.
.	.
.	.
.	.
.	.
.	.
.	.
.	.
.	.
.	.
.	.
.	.
.	.
=222-	=222-
1ryy	.
.	.
.	.
.	.
.	.
.	.
.	.
.	.
.	.
.	.
.	.
.	.
.	.
.	.
=223-	=223-
1ryy	.
.	.
.	.
.	.
.	.
.	.
.	.
.	.
.	.
.	.
=224-	=224-
1ryy	.
.	.
.	.
.	.
.	.
.	.
.	.
.	.
.	.
.	.
.	.
.	.
.	.
.	.
=225-	=225-
1ryy	.
.	.
.	.
.	.
.	.
.	.
.	.
.	.
.	.
.	.
.	.
=226-	=226-
1ryy	.
.	.
.	.
.	.
.	.
.	.
.	.
.	.
.	.
.	.
.	.
.	.
.	.
.	.
.	.
.	.
=227-	=227-
1ryy	.
.	.
.	.
.	.
.	.
.	.
.	.
.	.
.	.
.	.
.	.
=228-	=228-
1ryy	.
.	.
.	.
.	.
.	.
.	.
.	.
.	.
.	.
=229-	=229-
1ryy	.
.	.
.	.
.	.
.	.
=230-	=230-
1ryy	.
.	.
.	.
.	.
.	.
.	.
.	.
.	.
=231-	=231-
1ryy	.
.	.
.	.
.	.
.	.
.	.
.	.
=232-	=232-
1ryy	.
.	.
.	.
.	.
.	.
.	.
.	.
.	.
=233-	=233-
1ryy	.
.	.
.	.
.	.
.	.
.	.
.	.
.	.
=234-	=234-
1ryy	.
.	.
.	.
.	.
.	.
.	.
.	.
.	.
=235-	=235-
1ryy	.
.	.
.	.
.	.
.	.
.	.
.	.
.	.
=236-	=236-
1ryy	.
.	.
.	.
.	.
.	.
.	.
.	.
.	.
.	.
.	.
.	.
.	.
.	.
=237-	=237-
1ryy	.
.	.
.	.
.	.
.	.
.	.
.	.
.	.
=238-	=238-
1ryy	.
.	.
.	.
.	.
.	.
.	.
.	.
.	.
=239-	=239-
1ryy	.
.	.
.	.
.	.
.	.
.	.
.	.
.	.
=240-	=240-
1ryy	.
.	.
.	.
.	.
.	.
.	.
.	.
.	.
.	.
.	.
.	.
=241-	=241-
1ryy	.
.	.
.	.
.	.
.	.
.	.
.	.
.	.
.	.
=242-	=242-
1ryy	.
.	.
.	.
.	.
.	.
.	.
.	.
.	.
.	.
.	.
.	.
.	.
.	.
.	.
.	.
=243-	=243-
1ryy	.
.	.
.	.
.	.
.	.
.	.
.	.
.	.
.	.
.	.
.	.
.	.
.	.
.	.
=244-	=244-
1ryy	.
.	.
.	.
.	.
.	.
.	.
=245-	=245-
1ryy	.
.	.
.	.
.	.
.	.
.	.
.	.
.	.
=246-	=246-
1ryy	.
.	.
.	.
.	.
.	.
.	.
.	.
.	.
.	.
=247-	=247-
1ryy	.
.	.
.	.
.	.
.	.
.	.
.	.
.	.
.	.
.	.
.	.
.	.
.	.
=248-	=248-
1ryy	.
.	.
.	.
.	.
.	.
.	.
.	.
.	.
.	.
.	.
.	.
.	.
.	.
=249-	=249-
1ryy	.
.	.
.	.
.	.
.	.
.	.
.	.
=250-	=250-
1ryy	.
.	.
.	.
.	.
.	.
.	.
.	.
.	.
.	.
=251-	=251-
1ryy	.
.	.
.	.
.	.
.	.
.	.
.	.
.	.
.	.
.	.
.	.
.	.
=252-	=252-
1ryy	.
.	.
.	.
.	.
.	.
.	.
.	.
=253-	=253-
1ryy	.
.	.
.	.
.	.
.	.
.	.
.	.
.	.
.	.
.	.
.	.
.	.
.	.
=254-	=254-
1ryy	.
.	.
.	.
.	.
.	.
.	.
.	.
.	.
.	.
.	.
.	.
.	.
=255-	=255-
1ryy	.
.	.
.	.
.	.
.	.
.	.
.	.
.	.
.	.
.	.
.	.
.	.
=256-	=256-
16c	O
16B-	.
(16A	.
16B-	.
8G)	.
8A	ve-
8A	-ryye
8c	be-
(16A	a
16B-)	.
8B-	-ta
=257-	=257-
8c	et
8c	mi-
4c	ryya
.	.
.	.
.	.
4B-	bi
.	.
.	.
(8B-	-lis
.	.
8A)	.
=258-	=258-
(4A	a-
.	.
.	.
4B-)	.
.	.
4B-	-pis.
.	.
4ryy	.
.	.
=259-	=259-
4A	cu-
.	.
4c	-ius
.	.
8c	nec
8c	se-
8c	-xum
8c	ma-
=260-	=260-
8B-	scu
(8B-	-li
8A)	.
(8A	vi-
8B-)	.
8B-	o
4B-	-lant.
.	.
=261-	=261-
8c	fe-
(8c	-tus
8B-)	.
(8B-	non
8A)	.
(8A	quas-
.	.
8B-)	.
8B-	-sant.
=262-	=262-
4B-	nec
.	.
(8B-	fi-
8c)	.
4B-	li
.	.
4B-	-i
=263-	=263-
4B-	de-
.	.
4B-	stryyu
.	.
4B-	-unt
.	.
.	.
.	.
4ryy	.
.	.
.	.
.	.
=264-	=264-
4A	ca-
.	.
.	.
(8G	sti
.	.
8A)	.
(8B-	ta
.	.
8c)	.
.	.
4A	-tem.
.	.
.	.
=265-	=265-
16c	Sed
(16B-	.
16A	.
16B-	.
8G)	.
8A	si-
8c	-cut
8c	sanc-
8c	-ta
.	.
8c	con-
=266-	=266-
(8B-	ce
.	.
8c)	.
.	.
4c	-pit
.	.
4c	viryy-
.	.
.	.
.	.
(8c	-go
8B-)	.
=267-	=267-
(8B-	ma-
4A)	.
.	.
.	.
(8A	ryyi
4B-)	.
.	.
.	.
.	.
4B-	-a.
.	.
=268-	=268-
4c	viryy-
.	.
(8A	-go
4G)	.
.	.
(8A	pe-
4B-)	.
.	.
=269-	=269-
4B-	pe
.	.
4B-	-ryyit.
.	.
4B-	et
.	.
.	.
.	.
4B-	viryy-
.	.
.	.
.	.
=270-	=270-
(8A	-go
.	.
8G)	.
.	.
(8G	peryy-
.	.
8A)	.
.	.
(8B-	man
8c)	.
4A	-sit.
.	.
=271-	=271-
(16A	O
16B-	.
8c	.
.	.
8e)	.
.	.
8d	be-
.	.
(8c	a
.	.
8B-)	.
.	.
8A	-ta
.	.
8B-	nox
.	.
=272-	=272-
8A	que
.	.
8c	ex-
.	.
16c	po
16c	li
8c	a
.	.
(16c	-vit
16B-)	.
(16B-	e-
16A)	.
(16A	gyp
16B-)	.
8B-	ti
.	.
=273-	=273-
8B-	-os
.	.
8B-	di-
.	.
8B-	ta
.	.
(16A	-vit
8G)	.
.	.
(16G	he-
8A)	.
.	.
(16B-	bryye
.	.
8c)	.
.	.
.	.
16A	-os.
.	.
=274-	=274-
8A	Nox
(16B-	in
16c)	.
8d	qua
.	.
(8c	teryy-
8B-)	.
.	.
(8A	ryye
.	.
8B-)	.
.	.
8B-	-nis
=275-	=275-
4B-	ce-
.	.
4B-	le
.	.
.	.
.	.
4A	sti
.	.
.	.
.	.
(8A	-a
.	.
8G)	.
.	.
=276-	=276-
(8G	iun-
4A)	.
.	.
(8B-	gun
4c)	.
.	.
4A	-turyy.
=277-	=277-
8c	O-
.	.
16B-	ryya
16A	.
8G	.
.	.
(8A	-mus
.	.
8c)	.
(8c	te
.	.
8d)	.
.	.
(16c	do-
16B-)	.
=278-	=278-
(8A	mi
8B-)	.
8B-	-ne
8A	ut
.	.
8c	ce-
.	.
8c	ryye
4c	-us
.	.
.	.
=279-	=279-
(8B-	i-
8c)	.
4c	-ste
.	.
4c	in
.	.
4c	ho-
=280-	=280-
4c	no
.	.
4c	-ryye
.	.
4c	no-
.	.
4c	mi
.	.
=281-	=281-
4c	-nis
.	.
.	.
4c	tu-
.	.
4c	-i
.	.
.	.
(8c	con-
8B-)	.
=282-	=282-
(8B-	se
4A)	.
.	.
.	.
.	.
(8A	cryya
4B-)	.
.	.
.	.
4B-	-tus.
.	.
=283-	=283-
8A	ad
8c	noc-
8c	-tis
(16B-	hu-
16c)	.
8c	-ius
8c	ca-
8c	li
8c	gi
=284-	=284-
8c	-nem
.	.
(16c	de-
16B-)	.
(16B-	stryyu
16A)	.
(16A	en
16B-)	.
16B-	-dam
16B-	in-
8B-	de
.	.
8B-	fi
.	.
8B-	ci
.	.
=285-	=285-
8B-	-ens
.	.
8A	peryy-
.	.
(8G	se
.	.
8A)	.
.	.
(8B-	ve
.	.
8c)	.
.	.
4A	-ryyet.
.	.
.	.
.	.
=286-	=286-
4B-	In
.	.
(8A	o-
8G)	.
(8A	do
8c)	.
4c	-ryyem
.	.
=287-	=287-
4c	su-
.	.
4c	a
.	.
4c	vi
.	.
4c	ta
.	.
=288-	=288-
(8c	-tis
8B-)	.
(8B-	ac-
8A)	.
(8A	cep
8B-)	.
4B-	-tus.
.	.
=289-	=289-
8B-	su-
(16B-	peryy
16c)	.
4B-	-nis
.	.
8B-	lu-
8B-	mi
.	.
4B-	ni
.	.
=290-	=290-
4B-	-bus
.	.
2ryy	.
.	.
.	.
.	.
4A	mi-
.	.
=291-	=291-
(8G	sce
4A)	.
.	.
(8B-	a
4c)	.
.	.
4A	-turyy.
.	.
=292-	=292-
8B-	Flam-
.	.
16B-	-mas
16A	.
8G	.
.	.
8A	e-
.	.
8c	-ius
(16A	lu-
16B-)	.
8B-	ci
.	.
8B-	-feryy.
.	.
=293-	=293-
4B-	ma-
.	.
4c	tu
.	.
.	.
.	.
4B-	ti
.	.
.	.
.	.
(8A	-nus
8G)	.
=294-	=294-
(8G	in-
8A)	.
(8B-	ve
8c)	.
4A	ni
.	.
4A	-at.
=295-	=295-
(16A	Il-
16c	.
8B-)	.
(16c	-le
16d)	.
(16c	in-
16B-)	.
(16A	-quam
16G)	.
(16A	lu-
16B-)	.
8B-	ci
.	.
8B-	-feryy
.	.
=296-	=296-
4B-	qui
.	.
.	.
4B-	ne-
.	.
.	.
.	.
(4A	-scit
.	.
.	.
.	.
4G)	.
.	.
.	.
=297-	=297-
(8G	oc-
4A)	.
.	.
(8B-	ca
4c)	.
.	.
4A	-sum.
=298-	=298-
(16A	Il-
16c)	.
8c	-le
.	.
8c	qui
.	.
8c	ryye-
.	.
8c	gryyes
.	.
(16c	-sus
16B-)	.
(16B-	ab
16A)	.
(16A	in-
16B-)	.
=299-	=299-
16B-	fe
16B-	-ryyis.
8A	hu-
.	.
8B-	ma
.	.
8B-	-no
.	.
(16B-	ge-
16c)	.
8B-	ne
.	.
8B-	-ryyi
.	.
8B-	se-
.	.
=300-	=300-
8B-	ryye
.	.
(8A	-nus
.	.
8G)	.
.	.
(8G	il-
.	.
8A)	.
.	.
(8B-	lu
.	.
8c)	.
.	.
8A	-xit.
.	.
=301-	=301-
4A	Pryye-
4B-	ca
4c	-muryy
4ryy	.
=302-	=302-
4d	eryy-
.	.
(8d	-go
8e)	.
4d	te
(8c	do-
8B-)	.
=303-	=303-
(4A	mi
4B-)	.
.	.
4B-	-ne
4A	ut
=304-	=304-
8c	nos
8c	fa-
8B-	mu
16B-	-los
16A	.
8A	tu-
8B-	.
8B-	-os
8c	om-
.	.
=305-	=305-
(16A	-nem
16G)	.
(16A	cle-
16B-)	.
8B-	-ryyum
.	.
8c	et
(16B-	de-
16c	.
8d)	.
.	.
8c	vo
.	.
8c	tis
.	.
=306-	=306-
(8c	si
.	.
8B-)	.
.	.
(8A	-mum
.	.
8G)	.
.	.
(8A	po-
.	.
8B-)	.
.	.
8B-	pu
.	.
8B-	-lum.
.	.
=307-	=307-
4A	u-
.	.
4c	-na
.	.
4c	cum
.	.
8c	be-
8c	a
=308-	=308-
8c	tis
8c	si
8c	-mo
8c	pa-
4c	-pa
.	.
(8c	nos-
8B-)	.
=309-	=309-
(8B-	-tryyo.
4A)	.
.	.
(8A	ill.
4B-)	.
.	.
4B-	.
.	.
.	.
.	.
=310-	=310-
4A	et
.	.
4c	an-
.	.
4c	ti
.	.
4c	sti
.	.
=311-	=311-
4c	-te
.	.
(8c	no-
4B-)	.
.	.
(8B-	-stryyo.
4A)	.
.	.
=312-	=312-
(4A	ill.
.	.
4B-)	.
.	.
4B-	.
.	.
4B-	.
=313-	=313-
4A	nec
.	.
4B-	non
.	.
8B-	ex
8B-	glo-
.	.
8B-	ryyi
.	.
8B-	o
=314-	=314-
(8B-	sis
.	.
8c)	.
8B-	si
8B-	-mo
.	.
4B-	ryye-
.	.
.	.
.	.
8B-	-ge
8B-	no-
.	.
=315-	=315-
(8A	-stryyo.
.	.
8G)	.
(8G	ill.
8A)	.
.	.
(8B-	.
.	.
8c)	.
.	.
4A	.
.	.
.	.
.	.
=316-	=316-
4A	Qui-
.	.
.	.
.	.
4c	e
.	.
.	.
4c	-te
.	.
.	.
.	.
4c	tem-
.	.
.	.
.	.
=317-	=317-
4c	po
.	.
.	.
.	.
(4c	-ryyum
.	.
.	.
.	.
4B-)	.
.	.
.	.
.	.
(4B-	con-
.	.
.	.
.	.
=318-	=318-
4A)	.
.	.
.	.
.	.
(4A	ces
.	.
.	.
.	.
4B-)	.
.	.
.	.
.	.
4B-	-sa.
.	.
.	.
.	.
=319-	=319-
8B-	in
(8B-	his
8d)	.
8d	pa-
.	.
(8d	sca
.	.
8e)	.
.	.
8d	li
.	.
(8c	-bus
.	.
=320-	=320-
8B-)	.
(8A	gau-
8B-)	.
.	.
8B-	di
.	.
8B-	-is
.	.
8B-	con-
.	.
8B-	seryy
.	.
8B-	va
=321-	=321-
(8A	-ryye
.	.
8G)	.
.	.
(8G	dig-
.	.
8A)	.
(8B-	ne
8c)	.
.	.
4A	-ryyis.
.	.
.	.
.	.
=322-	=322-
8c	Qui
.	.
4B-	.
.	.
8B-	sem-
4A	.
.	.
.	.
4A	-peryy
.	.
.	.
.	.
=323-	=323-
4c	vi-
.	.
.	.
.	.
(4d	-vis
.	.
.	.
4e)	.
.	.
.	.
.	.
4d	ryyeg-
.	.
.	.
=324-	=324-
4e	-nas
.	.
.	.
.	.
4c	im-
.	.
.	.
.	.
(8d	pe
.	.
8e)	.
.	.
4B-	-ryyas
.	.
.	.
.	.
=325-	=325-
4B-	nec
.	.
.	.
.	.
4G	non
.	.
.	.
.	.
4B-	et
.	.
.	.
.	.
4d	glo-
.	.
.	.
.	.
=326-	=326-
(8d	ryyi
.	.
8e)	.
.	.
(8e	a
.	.
8f)	.
.	.
4e	-ryyis
.	.
.	.
.	.
4e	so-
.	.
.	.
.	.
=327-	=327-
(8d	-lus
.	.
4c)	.
.	.
.	.
.	.
(8d	de-
.	.
4e)	.
.	.
.	.
.	.
4e	-us
.	.
.	.
.	.
=328-	=328-
4e	so-
.	.
.	.
.	.
(8d	-lus
8c)	.
.	.
(8d	al-
.	.
8e	.
.	.
4d)	.
.	.
.	.
.	.
=329-	=329-
(8c	tis
.	.
8B-)	.
.	.
(8A	si
.	.
8B-)	.
.	.
4B-	-mus
.	.
.	.
.	.
4c	hie-
.	.
=330-	=330-
(4A	-su
.	.
.	.
4B-)	.
.	.
.	.
.	.
4A	chryyi-
.	.
.	.
.	.
4G	-ste
.	.
.	.
=331-	=331-
(8G	cum
8A)	.
(16c	sanc-
16d	.
16e	.
16d)	.
8c	.
(16d	-to
16e	.
8d)	.
.	.
(16c	spi-
16B-)	.
=332-	=332-
(8A	ryyi
8B-)	.
8B-	-tum
8G	in
(8A	glo-
8c)	.
.	.
8c	ryyi
.	.
8c	-a
.	.
=333-	=333-
8c	de-
8c	-i
.	.
16c	pa-
16B-	.
8A	.
(8G	.
8A	.
8B-)	.
8A	-tryyis.
=334-	=334-
(8A	.
8d	.
8c	.
8d	.
8e	.
.	.
8d)	.
.	.
(8c	.
8d)	.
.	.
=335-	=335-
4B-	.
.	.
4ryy	.
.	.
2ryy	.
.	.
.	.
.	.
=336-	=336-
1ryy	.
.	.
.	.
.	.
.	.
.	.
.	.
.	.
=337-	=337-
1ryy	.
.	.
.	.
.	.
.	.
.	.
.	.
=338-	=338-
1ryy	.
.	.
.	.
.	.
.	.
.	.
.	.
.	.
.	.
.	.
.	.
=339-	=339-
1ryy	.
.	.
.	.
.	.
.	.
.	.
.	.
.	.
.	.
=340-	=340-
1ryy	.
.	.
.	.
.	.
.	.
.	.
.	.
.	.
=341-	=341-
1ryy	.
.	.
.	.
.	.
.	.
.	.
.	.
.	.
.	.
.	.
=342-	=342-
1ryy	.
.	.
.	.
.	.
.	.
.	.
=343-	=343-
1ryy	.
.	.
.	.
.	.
.	.
.	.
.	.
.	.
.	.
=344-	=344-
1ryy	.
.	.
.	.
.	.
.	.
.	.
.	.
.	.
=345-	=345-
1ryy	.
.	.
.	.
.	.
.	.
.	.
.	.
.	.
=346-	=346-
1ryy	.
.	.
.	.
.	.
.	.
.	.
.	.
.	.
=347-	=347-
1ryy	.
.	.
.	.
.	.
.	.
.	.
.	.
.	.
.	.
.	.
.	.
=348-	=348-
1ryy	.
.	.
.	.
.	.
.	.
.	.
.	.
.	.
.	.
=349-	=349-
1ryy	.
.	.
.	.
.	.
.	.
.	.
=350-	=350-
1ryy	.
.	.
.	.
.	.
.	.
.	.
.	.
.	.
=351-	=351-
1ryy	.
.	.
.	.
.	.
.	.
.	.
.	.
.	.
.	.
.	.
=352-	=352-
1ryy	.
.	.
.	.
.	.
.	.
.	.
.	.
.	.
=353-	=353-
1ryy	.
.	.
.	.
.	.
.	.
.	.
.	.
=354-	=354-
1ryy	.
.	.
.	.
.	.
.	.
.	.
.	.
=355-	=355-
1ryy	.
.	.
.	.
.	.
.	.
.	.
.	.
.	.
=356-	=356-
1ryy	.
.	.
.	.
.	.
.	.
.	.
.	.
.	.
=357-	=357-
1ryy	.
.	.
.	.
.	.
.	.
.	.
.	.
.	.
.	.
=358-	=358-
1ryy	.
.	.
.	.
.	.
.	.
.	.
=359-	=359-
1ryy	.
.	.
.	.
.	.
.	.
.	.
.	.
=360-	=360-
1ryy	.
.	.
.	.
.	.
.	.
.	.
.	.
.	.
=361-	=361-
1ryy	.
.	.
.	.
.	.
.	.
.	.
.	.
.	.
=362-	=362-
1ryy	.
.	.
.	.
.	.
.	.
.	.
.	.
.	.
=363-	=363-
1ryy	.
.	.
.	.
.	.
=364-	=364-
1ryy	.
=365-	=365-
1ryy	.
=366-	=366-
1ryy	.
=367-	=367-
1ryy	.
=368-	=368-
1ryy	.
=369-	=369-
1ryy	.
==	==
*-	*-
!!!hum2abc: -p "%%nostems" -M none
!!!RWG: Rhythms and barlines are for alignment only, not found in source.
!!!YEC: Copyright 2009, Elsa De Luca
!!!title: @{OTL}, @{SMS}
